X: 5434
T: Bulock's Hornpipe
R: three-two
M: 3/2
K: Gminor
M:6/4
|:G4 B3 c d2 cB|A2 F2 F2 c2 ABcA|G4 B3 c d2 cB|A2 G2 g2 G2 ABcA:|
|:G3 A G2 G,2 B,4|D2 F4 B2 A2 F2|G3 A G2 G,2 B,4|D2 F4 B2 A2 ^F2:|
|:GABG ABcA BcdB|A2 F2 F2 c2 ABcA|GABG ABcA BcdB|A2 G2 g2 G2 A2 ^F2:|
g3 a g2 G2 A4|F2 f4 F2 ABcA|g3 a g2 G2 A4|G2 g4 G2 ABcA|
g3 a g2 G2 A4|F2 f4 F2 ABcA|B2 AB c2 Bc d2 cd|g2 fe d2 c2 B2 A2||

